X: 25296
T: Man Of The House, The
R: reel
M: 4/4
K: Eminor
E2 BE GABG|E2 BE FDAD|E2 BE GABc|dBAG FEDF|
E2 BE GABG|E2 BE FDAD|E2 BE GABc|dBAG FED2||
efge fgaf|gfed edBA|efge fgaf|gfed Be e2|
efge fgaf|gfed efga|bgaf gfed|edBA GFED||

